X: 898
T: Jackson's Bottle of Brandy
N:"Collected by J.O'Neill"
B:O'Neill's 898
Z:Transcribed by Dan G. Petersen, dangp@post6.tele.dk
M:6/8
L:1/8
K:Em
G2e dBG|ABG dBG|G2e dBG|A2A BGE|
G2e dBG|BAB def|gfe dBG|AGA BGE:|
gbg faf|ege def|gfg aga|bab afd|
gbg faf|ege def|gfe dBG|AGA BGE:|


